assets/awselasticcontainerservice/original.svg

<svg height="64" viewBox="0 0 64 64" width="64" xmlns="http://www.w3.org/2000/svg"><g fill="none" fill-rule="evenodd"><path d="m0 0h64v64h-64z" fill="#ed7100"/><path d="m50 36.382-6-3v-8.382a1 1 0 0 0 -.515-.874l-8.485-4.714v-6.662l15 8.822zm1.507-16.244-17-10a1.001 1.001 0 0 0 -1.507.863v9c0 .362.197.697.515.873l8.485 4.714v8.412c0 .38.214.725.553.895l8 4a1 1 0 0 0 .972-.044c.295-.183.475-.504.475-.85v-17.001c0-.355-.188-.683-.493-.863m-19.507 31.691-17-10.389v-19.885l14-8.75v6.642l-7.53 4.706a1 1 0 0 0 -.47.848v13a1 1 0 0 0 .485.857l10 6a1 1 0 0 0 .994.021l10.509-5.732 5.047 2.883zm18.496-10.696-7-4a1 1 0 0 0 -.975-.01l-10.498 5.726-9.023-5.414v-11.88l7.53-4.706a1 1 0 0 0 .47-.848v-9a1 1 0 0 0 -1.53-.847l-16 10a1 1 0 0 0 -.47.847v21c0 .348.182.671.479.854l18 11a1 1 0 0 0 1.042 0l18-11a1 1 0 0 0 -.025-1.722" fill="#fff"/></g></svg>

<svg xmlns="http://www.w3.org/2000/svg" width="64" height="64" viewBox="0 0 64 64"><g fill="none" fill-rule="evenodd"><path fill="#ed7100" d="M0 0h64v64H0z"/><path fill="#fff" d="m50 36.382-6-3V25a1 1 0 0 0-.515-.874L35 19.412V12.75l15 8.822zm1.507-16.244-17-10a1.001 1.001 0 0 0-1.507.863v9c0 .362.197.697.515.873L42 25.588V34a1 1 0 0 0 .553.895l8 4a1 1 0 0 0 .972-.044 1 1 0 0 0 .475-.85V21c0-.355-.188-.683-.493-.863M32 51.828 15 41.439V21.554l14-8.75v6.642l-7.53 4.706A1 1 0 0 0 21 25v13a1 1 0 0 0 .485.857l10 6a1 1 0 0 0 .994.021l10.509-5.732 5.047 2.883zm18.496-10.696-7-4a1 1 0 0 0-.975-.01l-10.498 5.726L23 37.434v-11.88l7.53-4.706A1 1 0 0 0 31 20v-9a1 1 0 0 0-1.53-.847l-16 10A1 1 0 0 0 13 21v21c0 .348.182.671.479.854l18 11a1 1 0 0 0 1.042 0l18-11a1 1 0 0 0-.025-1.722"/></g></svg>
